packages/components/svg/outline/chevron-double-left.svg

<svg xmlns="http://www.w3.org/2000/svg" width="24" height="24" fill="currentColor" viewBox="0 0 24 24">  
<path d="M9.36402 16.6687C9.75137 17.056 10.3792 17.056 10.7666 16.6687C11.1538 16.2814 11.1538 15.6535 10.7666 15.2662L7.50043 12L10.7666 8.73391C11.1538 8.34658 11.1538 7.7187 10.7666 7.33137C10.3792 6.94405 9.75137 6.94409 9.36402 7.33137L5.92257 10.7728C5.24472 11.4507 5.24472 12.5494 5.92257 13.2273L9.36402 16.6687ZM16.307 16.6687C16.6943 17.056 17.3222 17.056 17.7095 16.6687C18.0968 16.2814 18.0968 15.6535 17.7095 15.2662L14.4434 12L17.7095 8.73391C18.0968 8.34658 18.0968 7.7187 17.7095 7.33137C17.3222 6.94405 16.6943 6.94409 16.307 7.33137L12.8655 10.7728C12.1877 11.4507 12.1877 12.5494 12.8655 13.2273L16.307 16.6687Z" />
</svg>

<svg xmlns="http://www.w3.org/2000/svg" width="24" height="24" fill="currentColor" viewBox="0 0 24 24">
  <path  d="M9.364 16.669a.992.992 0 0 0 1.403-1.403L7.5 12l3.267-3.266A.992.992 0 0 0 9.364 7.33l-3.441 3.442a1.735 1.735 0 0 0 0 2.454l3.441 3.442Zm6.943 0a.992.992 0 1 0 1.402-1.403L14.443 12l3.266-3.266a.992.992 0 0 0-1.402-1.403l-3.441 3.442a1.736 1.736 0 0 0 0 2.454l3.441 3.442Z"/>
</svg>
